X:191
T:Cammeron has got his Wife again. Ru2.191
%%VWML:RutherfordVol2-2249-p96-0
F:http://www.vwml.org/record/RutherfordVol2/2249/p96
Z:vmp.Ruairidh Greig 2015 www.village-music-project.org.uk
M:C|
L:1/8
Q:1/4=120
K:D
f|dABF A/A/A Af|d>A BF E/E/E E>e|dABF Agfe|dBAF D/D/D D||
g|fdaf egfe|fdfa B/B/B B>g|fdaf egfe|dBAF D/D/D D||
W:Foot it and cast off 2 Couples .| Foot it & cast up
W:again :| Gallop down 2 Couples & up again and
W:cast off | Right Hand and Left :|
T:Lads of Air. Ru2.192
B:RUTHERFORD Complete Collection of 200 Country Dances Vol.2; 1759.
Z:vmp.Ruairidh Greig 2015 www.village-music-project.org.uk
M:C|
L:1/8
Q:1/4=120
K:Ddor
f|e>dcd cGcf|"tr"e>dcef3g|"tr"e>dce (d/c/B/A/) cG|AcEcD2D||
e|c/c/c g>a "tr"gede|c/c/c gag2e2|c/c/c g>a gece|fdgec2c||
W:Foot it all 4 and Hands across half Round .|
W:The same back again :| Cross over 2 Couples
W:Lead up to the Top & cast off .|. Foot it
W:Corners & turn .|| Foot it the other Cor
W:ners & turn Lead out sides & turn your
W:Partner
